X:1
T:DELAWARE -- HORNPIPE
B:Ryan's Mammoth Collection of Fiddle Tunes
R:hornpipe
Z:Contributed 20000508174231 by Bob Safranek rjs:gsp.org
M:2/4
L:1/16
K:G
(udc) | BGBd BGBd | gfge dBGB | "4"ecdB cABG | E2A2A2 (dc) |
         BGBd BGBd | gfge dBGB | "4"ecdB cABG | D2G2G2 :|
|: ug2 | dgGg dgGg | dgba gfed |    eaca eaca | e2(ag) fed^c |
         dgGg dgGg | dgba gfed | eaba gfef | g2g2g2 :|
